X: 2343
M: C
L: 1/8
K: D
|:\
vF2F2 FGFE | DFAF B2A2 |\
[2,4 g | fdec d2A2 ::\
f2f2 fgfe |
defd B2A2 |\
f2f2 fgfe | defd B2A2 |\


